X:1
T:James Gibb editions
T:Calami sonum ferentes - Rore
T:#
%%score [ 1 2 3 4 ]
L:1/8
Q:1/4=120
M:2/2
K:F
V:1 treble-8 nm="Tenor I" snm="T I"
V:2 treble-8 nm="Tenor II" snm="T II"
V:3 treble-8 nm="Tenor III" snm="T III"
V:4 bass nm="Bass" snm="B"
V:1
"^Calami sonum ferentes""^Cipriano de Rore\n(1515-65)" E6 F2 | ^F4 G4- | G2 ^G4 A2 | =B4 c2 A2- | %4
w: Ca- la-|mi so\-|* num fe-|ren- tes si\-|
 A2 d2 d4 | =B4 e2 e2- | e2 ^d2 e4 |[M:2/2][K:treble-8] z2 A4 G2 | ^F4 G2 (G2- | G2 AG A4) | %10
w: * cu- lo|le vem nu\-|* me- ro,|le- vem|nu- me- ro,||
 z4 z2 E2- | E2 =B4 ^c2 | d4 e2 f2- | f2 f4 e2 | (defd e4) | z4 E4 | ^F6 G2 | A6 G2 | B4 A4 | %19
w: Non|* pel- lunt|ge- mi- tus|* pe- cto-|re * * * *|ab|i- mo|ni- mi-|um gra-|
 D4 z4 | z8 | z8 | z8 | z4 z2 E2 | F2 G2 (A3 B | c4) B2 (G2- | GF B2) (A3 D) | D8 | z2 A4 A2- | %29
w: ves,||||ab|i- mo ni- *|* mi- um|* * * gra\- *|ves,|Nec con\-|
 A2 ^F2 G4 | A4 B4 | G2 d4 e2 | ^f2 g2 (g2 =fe | d8) | ^c8 | z8 | z4 f4- | f4 f4 | z4 c4- | %39
w: * stre- pen-|te sunt|ab Au- fi-|do re- vul\- * *||si.||Mu\-|* sa,|Mu\-|
 c4 c4 ||[M:3/2][Q:1/4=180] z12 | A4 c4 =B4 | %42
w: * sa,||quae ne- mus|
[M:3/2][K:treble-8][Q:1/4=180][Q:1/4=180][Q:1/4=180][Q:1/4=180] c8 d4 | f4 f8 | e4 g8 | f12 | %46
w: in- co-|lis Sir-|mi- o-|nis|
 e4 d8 | e8 z4 | d8 d4 | d8 e4 | f8 f4 | d8 d4 | d4 B8 | B4 B4 A4 ||[M:2/2][Q:1/4=120] z8 | %55
w: a- moe-|num,|Red- di-|ta qua|le- nis|Les- bi-|a du-|ra fu- it,||
 f4 f4- |[M:2/2][K:treble-8][Q:1/4=120][Q:1/4=120][Q:1/4=120][Q:1/4=120] f4 e4 | z4 f4 | f8 | %59
w: Me a\-|* di,|me|ad-|
 e4 z2 =B2 | =B4 B2 (c2 | c2 =B2) (c4 | c2 _d4) c2 | c6 =B2 | =B4 z4 | e4 f4- | f4 e4 | %67
w: di, re-|ces- su prin\-|* ci- pis|* me- i|tri\- *|stem.|Me a\-|* di,|
 z2 ^c2 =c4 | c2 c4 =B2 | c4 _d4- | d4 c4 | (c6 B2) | =B4 z4 | z4 c4- | c4 c4 | z4 f4- | f4 f4 | %77
w: re- ces-|su prin- ci-|pis me\-|* i,|tri\- *|stem.|Mu\-|* sa,|Mu\-|* sa,|
 z8 | d8 | d4 z2 f2 | f3 f e2 d2 | e2 ^f2 (g4- | g2 f2) e4 | z4 c4 | d2 f4 d2 | d6 _e2 | (d4 c4) | %87
w: |Mu-|sa, de-|li- ci- ae tu-|i Ca- tul\-|* * li,|Dul-|ce tri- sti-|bus his|tu\- *|
 c4 z4 | G4 A2 (=B2- | Bc d2) c2 =B2 | e4 A4 | z2 e2 f2 g2- | g2 f4 e2 | d4 d4 | z4 c4- | c4 A4- | %96
w: um|iun- ge car\-|* * * men a-|ve- nis,|iun- ge car\-|* men a-|ve- nis,|Dul\-|* ce|
 A2 d4 B2 | (B3 c d2) c2 | B4 (A4- | A2 GF G4) | E4 F2 G2- | G2 F2 E2 E2- | E2 E2 z4 | A6 B2 | %104
w: * tri- sti-|bus * * his|tu- um||iun- ge car\-|* men a- ve\-|* nis,|iun- ge|
 d4 c4 | B2 A6 | A16 |] %107
w: car- men|a- ve-|nis.|
V:2
 z8 | z8 | z8 | E6 F2 | ^F4 G4- | G2 ^G4 A2 | =B4 c2 ^c2- |[M:2/2][K:treble-8] c2 e2 f2 d2- | %8
w: |||Ca- la-|mi so\-|* num fe-|ren- tes si\-|* cu- lo- ~le\-|
 d2 =B4 (e2- | ed c4) A2 | d2 =B4 e2 | e2 ^d2 e4 | z8 | z8 | z8 | z4 z2 A2- | A2 =B4 c2- | %17
w: * vem nu\-|* * * me-|ro, le- vem|nu- me- ro,||||Non|* pel- lunt|
 c2 d4 e2 | f2 f4 e2 | d4 G2 A2- | A2 =B2 c4- | c2 d2 e4- | e2 f4 e2 | d4 z4 | z4 z2 D2 | %25
w: * ge- mi-|tus pe- cto-|re, non pel\-|* lunt ge\-|* mi- tus|* pe- cto-|re,|ab|
 E2 F2 G3 G | B2 (G4 ^F2) | (G4 A4) | z2 c2 ^c4 | ^c2 d4 =c2 | c4 z2 G2- | G2 F4 E2 | D4 E4 | %33
w: i- mo ni- mi-|um gra\- *|ves, *|Nec con-|stre- pen- te|sunt ab|* Au- fi-|do re-|
 F4 D4 | E8 | z8 | z4 d4- | d4 d4 | z4 f4- | f4 f4 ||[M:3/2] z12 | z12 | %42
w: vul\- *|si.||Mu\-|* sa,|Mu\-|* sa,|||
[M:3/2][K:treble-8] F4 A4 G4 | A8 B4 | c4 B4 c4 | d8 c4 | c4 =B8 | c8 z4 | A8 A4 | A4 =B8 | c8 d4 | %51
w: quae ne- mus|in- co-|lis Sir- mi-|o- nis|a- moe-|num,|Red- di-|ta qua|le- nis|
 B8 B4 | A4 G8 | F4 G4 A4 ||[M:2/2] z8 | d4 d4- |[M:2/2][K:treble-8] d4 ^c4 | z4 d4 | d8 | ^c4 z4 | %60
w: Les- bi-|a du-|ra fu- it,||Me a\-|* di,|me|a-|di,|
 z8 | z8 | z8 | z8 | z8 | z4 z2 d2 | d4 ^c4 | z2 e2 e4 | e2 f4 e2 | f6 _g2- | g2 f2 (f4- | %71
w: |||||me|a- di,|re- ces-|su prin- ci-|pis me\-|* i tri\-|
 f2 e2) e4 | z8 | f8 | f4 z4 | B4 B4 | z2 F2 F3 F | E2 D2 E2 ^F2 | (G6 F2) | F4 z4 | z8 | z8 | z8 | %83
w: * * stem.||Mu-|sa,|Mu- sa,|de- li- ci-|ae tu- i Ca-|tul\- *|li,||||
 z8 | z4 F4 | G2 B4 G2 | (G3 F E2) F2 | (E3 D E4) | c4 z4 | z8 | =B4 c2 d2- | d2 c4 B2 | A4 A3 G | %93
w: |Dul-|ce tri- sti-|bus * * his|tu\- * *|um||iun- ge car\-|* men a-|ve- nis, a-|
 (F3 E D4) | E4 z4 | z8 | z4 F4 | G2 B4 G2 | (G3 F E2) F2 | (E3 D E2) E2 | G4 A2 (=B2 | %101
w: ve\- * *|nis,||Dul-|ce tri- sti-|bus * * his|tu\- * * um|iun- ge car\-|
 Bc d2) c2 =B2 | e4 A4 | z2 e2 f2 g2- | g2 f4 e2 | d8 | ^c16 |] %107
w: * * * men a-|ve- nis,|iun- ge car\-|* men a-|ve-|nis.|
V:3
 z8 | z8 | z8 | z8 | z8 | z8 | z8 |[M:2/2][K:treble-8] z8 | z8 | E6 F2 | ^F4 G4- | G2 ^G4 A2 | %12
w: |||||||||Ca- la-|mi so\-|* num fe-|
 =B4 c2 A2- | AA B2 A4 | A2 d4 ^c2 | d4 z4 | z8 | z8 | z2 D4 A2- | A2 =B4 c2- | c2 d2 _e2 e2- | %21
w: ren- tes si\-|* cu- lo le|vem nu- me-|ro,|||Non pel\-|* lunt ge\-|* mi- tus pe\-|
 e2 d2 c4 | z2 A2 B2 c2 | F4 E2 G2 | (F2 ED F4) | G2 A2 B2 c2 | d6 A2 | B2 (G3 ^F F2) | G2 E2 E4 | %29
w: * cto- re,|ab i- mo|ni- mi- um|gra\- * * *|ves, ab i- mo|ni- mi-|um gra\- * *|ves, Nec con-|
 E2 D4 E2 | F4 z4 | B4 A3 G | d4 c2 (A2- | A2 GF G4) | A8- | A4 z4 | B8 | B8 | z4 A4- | A4 A4- || %40
w: stre- pen- te|sunt|ab Au- fi-|do re- vul\-||si.||Mu-|sa,|Mu\-|* sa,|
[M:3/2] A6 z6 | z12 |[M:3/2][K:treble-8] A4 c4 =B4 | c6 c2 d4 | G8 G4 | B8 A4 | G4 G8 | G8 z4 | %48
w: ||quae ne- mus|in- co- lis|Sir- mi-|o- nis|a- moe-|num,|
 ^F8 F4 | ^F4 G8 | A8 B4 | F8 G4 | F4 _E8 | D4 D4 F4 ||[M:2/2] z4 B4 | B8 | %56
w: Red- di-|ta qua|le- nis|Les- bi-|a du-|ra fu- it,|Me|a-|
[M:2/2][K:treble-8] A4 z4 | B4 B4- | B4 A4 | z4 z2 G2 | G4 G2 G2- | G2 ^F2 G4 | _A8 | G4 (G4- | %64
w: di,|me a\-|* di,|re-|ces- su prin\-|* ci- pis|me-|i tri\-|
 G2 ^F2) F4 | z2 A4 B2- | B2 A2 z2 A2 | A4 A4 | A6 ^G2 | A4 B4- | B4 A4 | (A4 E4) | E4 z4 | %73
w: * * stem.|Me a\-|* di, re-|ces- su|prin- ci-|pis me\-|* i|tri\- *|stem.|
 z4 A4- | A4 A4 | d8 | d4 z4 | z8 | z2 B4 B2 | z2 B2 B3 B | A2 d2 c2 B2 | A4 G4 | z4 c4- | c4 A4- | %84
w: Mu-|* sa,|Mu-|sa,||Mu- sa,|de- li- ci-|ae tu- i Ca-|tul- li,|Dul\-|* ce|
 A2 d4 B2 | (B3 c d2) c2 | B4 (A4- | A2 GF G4) | E4 F2 G2- | G2 F2 E2 E2- | E2 E2 z4 | A6 B2 | %92
w: * tri- sti-|bus * * his|tu- um||iun- ge car\-|* men a- ve\-|* nis,|iun- ge|
 d4 c4 | B2 (A3 G/F/ G2) | A4 z4 | z4 c4 | d2 f4 d2 | d6 _e2 | (d4 c4) | c8- | c4 z4 | z8 | %102
w: car- men|a- ve\- * * *|nis,|Dul-|ce tri- sti-|bus his|tu\- *|um|||
 =B4 c2 d2- | d2 c4 B2 | A4 A3 G | F8 | E16 |] %107
w: iun- ge car\-|* men a-|ve- nis, a-|ve-|nis.|
V:4
 z8 | z8 | z8 | z8 | z8 | z8 | z8 |[M:2/2] A,,6 B,,2 | =B,,6 C,2- | C,2 C,4 D,2 | =B,,4 E,2 C,2- | %11
w: |||||||Ca- la-|mi so\-|* num fe-|ren- tes si\-|
 C,2 =B,,2 E,4 | z4 A,,4 | D,2 D,4 ^C,2 | D,4 A,,4 | =B,,4 ^C,4 | D,6 E,2 | F,2 F,4 E,2 | D,4 z4 | %19
w: * cu- lo|le-|vem nu- me-|ro Non|pel- lunt|ge- mi-|tus pe- cto-|re,|
 z8 | z8 | z8 | z4 z2 A,,2 | B,,4 C,4 | D,8 | C,4 _E,4 | D,8 | G,,4 z4 | z2 A,,2 A,,4 | %29
w: |||ab|i- mo|ni-|mi- um|gra-|ves,|Nec con-|
 A,,2 =B,,4 C,2 | F,4 z2 _E,2- | E,2 D,4 C,2 | =B,,4 C,4 | B,,8 | A,,8- | A,,4 z4 | z8 | z8 | F,8 | %39
w: stre- pen- te|sunt ab|* Au- fi-|do re-|vul-|si.||||Mu-|
 F,8 ||[M:3/2] D,4 F,4 E,4 | F,8 G,4 |[M:3/2] A,8 z4 | (F,6 E,2 D,4) | C,4 _E,8 | B,,8 z4 | %46
w: sa,|quae ne- mus|in- co-|lis|Sir- * *|mi- o-|nis|
 C,4 G,,8 | C,8 z4 | D,8 D,4 | D,4 G,8 | F,8 B,,4 | B,,8 G,,4 | D,4 G,,8 | D,4 G,,4 D,4 || %54
w: a- moe-|num,|Red- di-|ta qua|le- nis|Les- bi-|a du-|ra fu- it,|
[M:2/2] z8 | B,,6 D,2- |[M:2/2] D,4 A,,4 | z4 B,,4- | B,,2 D,6 | A,,4 z2 E,2 | E,4 E,2 E,2- | %61
w: |Me a\-|* di,|me|* a-|di, re-|ces- su prin\-|
 E,2 ^D,2 E,4 | F,8 | E,4 (E,4- | =B,,4) B,,4 | z4 D,4 | D,4 A,,4 | z8 | z8 | z8 | z8 | z8 | z8 | %73
w: * ci- pis|me-|i tri\-|* stem.|Me|a- di,|||||||
 z4 F,4- | F,4 F,4 | z4 z2 B,,2 | B,,3 B,, A,,2 D,2 | C,2 B,,2 A,,4 | G,,4 B,,4 | B,,4 z2 D,2 | %80
w: Mu\-|* sa,|de-|li- ci- ae tu-|i Ca- tul-|li, Mu-|sa, de-|
 D,3 D, A,,2 D,2 | ^C,2 D,2 (_E,4- | E,2 D,2) C,4 | F,8 | D,4 B,,4- | B,,2 G,,2 G,,4- | G,,4 A,,4 | %87
w: li- ci- ae tu-|i Ca- tul\-|* * li,|Dul-|ce tri\-|* sti- bus|* his|
 C,8 | C,4 z2 E,2- | E,2 F,2 G,4- | G,4 F,4- | F,2 E,2 D,4 | D,4 z2 A,,2 | (D,3 C, B,,4) | %94
w: tu-|um iun\-|* ge car\-|* men|* a- ve-|nis, a-|ve\- * *|
 A,,4 z4 | F,8 | D,4 B,,4- | B,,2 G,,2 G,,4- | G,,4 A,,4 | C,8 | C,4 z2 E,2- | E,2 F,2 G,4- | %102
w: nis,|Dul-|ce tri\-|* sti- bus|* his|tu-|um iun\-|* ge car\-|
 G,4 F,4- | F,2 E,2 D,4 | D,4 z2 A,,2 | D,8 | A,,16 |] %107
w: * men|* a- ve-|nis, a-|ve-|nis.|

